src/pages/elements/pictograms/images/10_Backgrounds_6_dont.svg

<?xml version="1.0" encoding="UTF-8"?>
<svg width="288px" height="288px" viewBox="0 0 288 288" version="1.1" xmlns="http://www.w3.org/2000/svg" xmlns:xlink="http://www.w3.org/1999/xlink">
    <!-- Generator: Sketch 52.5 (67469) - http://www.bohemiancoding.com/sketch -->
    <title>Artboard Copy 77</title>
    <desc>Created with Sketch.</desc>
    <defs>
        <linearGradient x1="6.95652174%" y1="109.638554%" x2="93.0434783%" y2="-9.63855422%" id="linearGradient-1">
            <stop stop-color="#FF4A51" offset="0%"></stop>
            <stop stop-color="#FFA1C4" offset="100%"></stop>
        </linearGradient>
        <polygon id="path-2" points="0 288 288 288 288 0 0 0"></polygon>
        <path d="M127.081813,0 L127.081813,15.17425 L85.227563,15.17425 L85.227563,0 L81.081813,0 L81.081813,15.17425 L39.221813,15.17425 L39.221813,0 L35.076063,0 L35.076063,15.17425 L2.65756303,15.17425 C1.51331303,15.17425 0.587563025,16.10575 0.587563025,17.25 L0.587563025,172.5 C0.587563025,173.64425 1.51331303,174.57 2.65756303,174.57 L163.657563,174.57 C164.801813,174.57 165.733313,173.64425 165.733313,172.5 L165.733313,17.25 C165.733313,16.10575 164.801813,15.17425 163.657563,15.17425 L131.221813,15.17425 L131.221813,0 L127.081813,0 Z M131.221813,34.5 L131.221813,19.32 L161.587563,19.32 L161.587563,170.42425 L4.72756303,170.42425 L4.72756303,19.32 L35.076063,19.32 L35.076063,34.5 L39.221813,34.5 L39.221813,19.32 L81.081813,19.32 L81.081813,34.5 L85.227563,34.5 L85.227563,19.32 L127.081813,19.32 L127.081813,34.5 L131.221813,34.5 Z M123.401813,55.42425 C122.257563,55.42425 121.331813,56.35575 121.331813,57.5 L121.331813,69 C121.331813,70.14425 122.257563,71.07 123.401813,71.07 L134.896063,71.07 C136.040313,71.07 136.971813,70.14425 136.971813,69 L136.971813,57.5 C136.971813,56.35575 136.040313,55.42425 134.896063,55.42425 L123.401813,55.42425 Z M125.471813,66.92425 L132.831813,66.92425 L132.831813,59.57 L125.471813,59.57 L125.471813,66.92425 Z M77.401813,55.42425 C76.263313,55.42425 75.337563,56.35575 75.337563,57.5 L75.337563,69 C75.337563,70.14425 76.263313,71.07 77.401813,71.07 L88.907563,71.07 C90.046063,71.07 90.977563,70.14425 90.977563,69 L90.977563,57.5 C90.977563,56.35575 90.046063,55.42425 88.907563,55.42425 L77.401813,55.42425 Z M79.477563,66.92425 L86.837563,66.92425 L86.837563,59.57 L79.477563,59.57 L79.477563,66.92425 Z M31.407563,55.42425 C30.263313,55.42425 29.337563,56.35575 29.337563,57.5 L29.337563,69 C29.337563,70.14425 30.263313,71.07 31.407563,71.07 L42.907563,71.07 C44.051813,71.07 44.977563,70.14425 44.977563,69 L44.977563,57.5 C44.977563,56.35575 44.051813,55.42425 42.907563,55.42425 L31.407563,55.42425 Z M33.477563,66.92425 L40.837563,66.92425 L40.837563,59.57 L33.477563,59.57 L33.477563,66.92425 Z M123.401813,95.68 C122.257563,95.68 121.331813,96.60575 121.331813,97.75 L121.331813,109.25 C121.331813,110.39425 122.257563,111.32 123.401813,111.32 L134.896063,111.32 C136.040313,111.32 136.971813,110.39425 136.971813,109.25 L136.971813,97.75 C136.971813,96.60575 136.040313,95.68 134.896063,95.68 L123.401813,95.68 Z M125.471813,107.18 L132.831813,107.18 L132.831813,99.82575 L125.471813,99.82575 L125.471813,107.18 Z M77.401813,95.68 C76.263313,95.68 75.337563,96.60575 75.337563,97.75 L75.337563,109.25 C75.337563,110.39425 76.263313,111.32 77.401813,111.32 L88.907563,111.32 C90.046063,111.32 90.977563,110.39425 90.977563,109.25 L90.977563,97.75 C90.977563,96.60575 90.046063,95.68 88.907563,95.68 L77.401813,95.68 Z M79.477563,107.18 L86.837563,107.18 L86.837563,99.82575 L79.477563,99.82575 L79.477563,107.18 Z M31.407563,95.68 C30.263313,95.68 29.337563,96.60575 29.337563,97.75 L29.337563,109.25 C29.337563,110.39425 30.263313,111.32 31.407563,111.32 L42.907563,111.32 C44.051813,111.32 44.977563,110.39425 44.977563,109.25 L44.977563,97.75 C44.977563,96.60575 44.051813,95.68 42.907563,95.68 L31.407563,95.68 Z M33.477563,107.18 L40.837563,107.18 L40.837563,99.82575 L33.477563,99.82575 L33.477563,107.18 Z M123.401813,135.93 C122.257563,135.93 121.331813,136.85575 121.331813,138 L121.331813,149.5 C121.331813,150.64425 122.257563,151.57575 123.401813,151.57575 L134.896063,151.57575 C136.040313,151.57575 136.971813,150.64425 136.971813,149.5 L136.971813,138 C136.971813,136.85575 136.040313,135.93 134.896063,135.93 L123.401813,135.93 Z M125.471813,147.43 L132.831813,147.43 L132.831813,140.07575 L125.471813,140.07575 L125.471813,147.43 Z M77.401813,135.93 C76.263313,135.93 75.337563,136.85575 75.337563,138 L75.337563,149.5 C75.337563,150.64425 76.263313,151.57575 77.401813,151.57575 L88.907563,151.57575 C90.046063,151.57575 90.977563,150.64425 90.977563,149.5 L90.977563,138 C90.977563,136.85575 90.046063,135.93 88.907563,135.93 L77.401813,135.93 Z M79.477563,147.43 L86.837563,147.43 L86.837563,140.07575 L79.477563,140.07575 L79.477563,147.43 Z M31.407563,135.93 C30.263313,135.93 29.337563,136.85575 29.337563,138 L29.337563,149.5 C29.337563,150.64425 30.263313,151.57575 31.407563,151.57575 L42.907563,151.57575 C44.051813,151.57575 44.977563,150.64425 44.977563,149.5 L44.977563,138 C44.977563,136.85575 44.051813,135.93 42.907563,135.93 L31.407563,135.93 Z M33.477563,147.43 L40.837563,147.43 L40.837563,140.07575 L33.477563,140.07575 L33.477563,147.43 Z" id="path-3"></path>
        <linearGradient x1="1.23675603%" y1="100.476915%" x2="98.7597552%" y2="8.21874407%" id="linearGradient-5">
            <stop stop-color="#97C1FF" offset="0%"></stop>
            <stop stop-color="#D0B0FF" offset="100%"></stop>
        </linearGradient>
    </defs>
    <g id="Artboard-Copy-77" stroke="none" stroke-width="1" fill="none" fill-rule="evenodd">
        <rect id="Rectangle-3-Copy-45" fill="#FFFFFF" x="0" y="0" width="288" height="288"></rect>
        <g id="Fill-1-Copy-6">
            <use fill="url(#linearGradient-1)" xlink:href="#path-2"></use>
            <use fill="#8A3FFC" xlink:href="#path-2"></use>
        </g>
        <g id="Group-5-Copy" transform="translate(52.000000, 52.000000)">
            <polygon id="Fill-1" points="0 184 183.99425 184 183.99425 0 0 0"></polygon>
            <g id="Group-4" transform="translate(8.842437, 5.750000)">
                <mask id="mask-4" fill="white">
                    <use xlink:href="#path-3"></use>
                </mask>
                <g id="Clip-3"></g>
                <path d="M127.081813,0 L127.081813,15.17425 L85.227563,15.17425 L85.227563,0 L81.081813,0 L81.081813,15.17425 L39.221813,15.17425 L39.221813,0 L35.076063,0 L35.076063,15.17425 L2.65756303,15.17425 C1.51331303,15.17425 0.587563025,16.10575 0.587563025,17.25 L0.587563025,172.5 C0.587563025,173.64425 1.51331303,174.57 2.65756303,174.57 L163.657563,174.57 C164.801813,174.57 165.733313,173.64425 165.733313,172.5 L165.733313,17.25 C165.733313,16.10575 164.801813,15.17425 163.657563,15.17425 L131.221813,15.17425 L131.221813,0 L127.081813,0 Z M131.221813,34.5 L131.221813,19.32 L161.587563,19.32 L161.587563,170.42425 L4.72756303,170.42425 L4.72756303,19.32 L35.076063,19.32 L35.076063,34.5 L39.221813,34.5 L39.221813,19.32 L81.081813,19.32 L81.081813,34.5 L85.227563,34.5 L85.227563,19.32 L127.081813,19.32 L127.081813,34.5 L131.221813,34.5 Z M123.401813,55.42425 C122.257563,55.42425 121.331813,56.35575 121.331813,57.5 L121.331813,69 C121.331813,70.14425 122.257563,71.07 123.401813,71.07 L134.896063,71.07 C136.040313,71.07 136.971813,70.14425 136.971813,69 L136.971813,57.5 C136.971813,56.35575 136.040313,55.42425 134.896063,55.42425 L123.401813,55.42425 Z M125.471813,66.92425 L132.831813,66.92425 L132.831813,59.57 L125.471813,59.57 L125.471813,66.92425 Z M77.401813,55.42425 C76.263313,55.42425 75.337563,56.35575 75.337563,57.5 L75.337563,69 C75.337563,70.14425 76.263313,71.07 77.401813,71.07 L88.907563,71.07 C90.046063,71.07 90.977563,70.14425 90.977563,69 L90.977563,57.5 C90.977563,56.35575 90.046063,55.42425 88.907563,55.42425 L77.401813,55.42425 Z M79.477563,66.92425 L86.837563,66.92425 L86.837563,59.57 L79.477563,59.57 L79.477563,66.92425 Z M31.407563,55.42425 C30.263313,55.42425 29.337563,56.35575 29.337563,57.5 L29.337563,69 C29.337563,70.14425 30.263313,71.07 31.407563,71.07 L42.907563,71.07 C44.051813,71.07 44.977563,70.14425 44.977563,69 L44.977563,57.5 C44.977563,56.35575 44.051813,55.42425 42.907563,55.42425 L31.407563,55.42425 Z M33.477563,66.92425 L40.837563,66.92425 L40.837563,59.57 L33.477563,59.57 L33.477563,66.92425 Z M123.401813,95.68 C122.257563,95.68 121.331813,96.60575 121.331813,97.75 L121.331813,109.25 C121.331813,110.39425 122.257563,111.32 123.401813,111.32 L134.896063,111.32 C136.040313,111.32 136.971813,110.39425 136.971813,109.25 L136.971813,97.75 C136.971813,96.60575 136.040313,95.68 134.896063,95.68 L123.401813,95.68 Z M125.471813,107.18 L132.831813,107.18 L132.831813,99.82575 L125.471813,99.82575 L125.471813,107.18 Z M77.401813,95.68 C76.263313,95.68 75.337563,96.60575 75.337563,97.75 L75.337563,109.25 C75.337563,110.39425 76.263313,111.32 77.401813,111.32 L88.907563,111.32 C90.046063,111.32 90.977563,110.39425 90.977563,109.25 L90.977563,97.75 C90.977563,96.60575 90.046063,95.68 88.907563,95.68 L77.401813,95.68 Z M79.477563,107.18 L86.837563,107.18 L86.837563,99.82575 L79.477563,99.82575 L79.477563,107.18 Z M31.407563,95.68 C30.263313,95.68 29.337563,96.60575 29.337563,97.75 L29.337563,109.25 C29.337563,110.39425 30.263313,111.32 31.407563,111.32 L42.907563,111.32 C44.051813,111.32 44.977563,110.39425 44.977563,109.25 L44.977563,97.75 C44.977563,96.60575 44.051813,95.68 42.907563,95.68 L31.407563,95.68 Z M33.477563,107.18 L40.837563,107.18 L40.837563,99.82575 L33.477563,99.82575 L33.477563,107.18 Z M123.401813,135.93 C122.257563,135.93 121.331813,136.85575 121.331813,138 L121.331813,149.5 C121.331813,150.64425 122.257563,151.57575 123.401813,151.57575 L134.896063,151.57575 C136.040313,151.57575 136.971813,150.64425 136.971813,149.5 L136.971813,138 C136.971813,136.85575 136.040313,135.93 134.896063,135.93 L123.401813,135.93 Z M125.471813,147.43 L132.831813,147.43 L132.831813,140.07575 L125.471813,140.07575 L125.471813,147.43 Z M77.401813,135.93 C76.263313,135.93 75.337563,136.85575 75.337563,138 L75.337563,149.5 C75.337563,150.64425 76.263313,151.57575 77.401813,151.57575 L88.907563,151.57575 C90.046063,151.57575 90.977563,150.64425 90.977563,149.5 L90.977563,138 C90.977563,136.85575 90.046063,135.93 88.907563,135.93 L77.401813,135.93 Z M79.477563,147.43 L86.837563,147.43 L86.837563,140.07575 L79.477563,140.07575 L79.477563,147.43 Z M31.407563,135.93 C30.263313,135.93 29.337563,136.85575 29.337563,138 L29.337563,149.5 C29.337563,150.64425 30.263313,151.57575 31.407563,151.57575 L42.907563,151.57575 C44.051813,151.57575 44.977563,150.64425 44.977563,149.5 L44.977563,138 C44.977563,136.85575 44.051813,135.93 42.907563,135.93 L31.407563,135.93 Z M33.477563,147.43 L40.837563,147.43 L40.837563,140.07575 L33.477563,140.07575 L33.477563,147.43 Z" id="Fill-2" fill="url(#linearGradient-5)" mask="url(#mask-4)"></path>
            </g>
        </g>
    </g>
</svg>

<svg xmlns="http://www.w3.org/2000/svg" xmlns:xlink="http://www.w3.org/1999/xlink" viewBox="0 0 288 288"><defs><linearGradient x1="6.957%" y1="109.639%" x2="93.043%" y2="-9.639%" id="a"><stop stop-color="#FF4A51" offset="0%"/><stop stop-color="#FFA1C4" offset="100%"/></linearGradient><linearGradient x1="1.237%" y1="100.477%" x2="98.76%" y2="8.219%" id="d"><stop stop-color="#97C1FF" offset="0%"/><stop stop-color="#D0B0FF" offset="100%"/></linearGradient><path id="b" d="M0 288h288V0H0z"/><path d="M127.082 0v15.174H85.228V0h-4.146v15.174h-41.86V0h-4.146v15.174H2.658c-1.145 0-2.07.932-2.07 2.076V172.5c0 1.144.925 2.07 2.07 2.07h161a2.074 2.074 0 002.075-2.07V17.25a2.079 2.079 0 00-2.075-2.076h-32.436V0h-4.14zm4.14 34.5V19.32h30.366v151.104H4.728V19.32h30.348V34.5h4.146V19.32h41.86V34.5h4.146V19.32h41.854V34.5h4.14zm-7.82 20.924c-1.144 0-2.07.932-2.07 2.076V69c0 1.144.926 2.07 2.07 2.07h11.494a2.074 2.074 0 002.076-2.07V57.5a2.079 2.079 0 00-2.076-2.076h-11.494zm2.07 11.5h7.36V59.57h-7.36v7.354zm-48.07-11.5a2.072 2.072 0 00-2.064 2.076V69c0 1.144.925 2.07 2.064 2.07h11.506c1.138 0 2.07-.926 2.07-2.07V57.5a2.077 2.077 0 00-2.07-2.076H77.402zm2.076 11.5h7.36V59.57h-7.36v7.354zm-48.07-11.5c-1.145 0-2.07.932-2.07 2.076V69c0 1.144.925 2.07 2.07 2.07h11.5c1.144 0 2.07-.926 2.07-2.07V57.5a2.074 2.074 0 00-2.07-2.076h-11.5zm2.07 11.5h7.36V59.57h-7.36v7.354zm89.924 28.756c-1.144 0-2.07.926-2.07 2.07v11.5c0 1.144.926 2.07 2.07 2.07h11.494a2.074 2.074 0 002.076-2.07v-11.5c0-1.144-.932-2.07-2.076-2.07h-11.494zm2.07 11.5h7.36v-7.354h-7.36v7.354zm-48.07-11.5a2.067 2.067 0 00-2.064 2.07v11.5c0 1.144.925 2.07 2.064 2.07h11.506c1.138 0 2.07-.926 2.07-2.07v-11.5c0-1.144-.932-2.07-2.07-2.07H77.402zm2.076 11.5h7.36v-7.354h-7.36v7.354zm-48.07-11.5c-1.145 0-2.07.926-2.07 2.07v11.5c0 1.144.925 2.07 2.07 2.07h11.5c1.144 0 2.07-.926 2.07-2.07v-11.5c0-1.144-.926-2.07-2.07-2.07h-11.5zm2.07 11.5h7.36v-7.354h-7.36v7.354zm89.924 28.75c-1.144 0-2.07.926-2.07 2.07v11.5c0 1.144.926 2.076 2.07 2.076h11.494a2.079 2.079 0 002.076-2.076V138c0-1.144-.932-2.07-2.076-2.07h-11.494zm2.07 11.5h7.36v-7.354h-7.36v7.354zm-48.07-11.5a2.067 2.067 0 00-2.064 2.07v11.5c0 1.144.925 2.076 2.064 2.076h11.506c1.138 0 2.07-.932 2.07-2.076V138c0-1.144-.932-2.07-2.07-2.07H77.402zm2.076 11.5h7.36v-7.354h-7.36v7.354zm-48.07-11.5c-1.145 0-2.07.926-2.07 2.07v11.5c0 1.144.925 2.076 2.07 2.076h11.5c1.144 0 2.07-.932 2.07-2.076V138c0-1.144-.926-2.07-2.07-2.07h-11.5zm2.07 11.5h7.36v-7.354h-7.36v7.354z" id="c"/></defs><g fill="none" fill-rule="evenodd"><path fill="#FFF" d="M0 0h288v288H0z"/><use fill="url(#a)" xlink:href="#b"/><use fill="#8A3FFC" xlink:href="#b"/><path d="M52 236h183.994V52H52z"/><g transform="translate(60.842 57.75)"><mask id="e" fill="#fff"><use xlink:href="#c"/></mask><path d="M127.082 0v15.174H85.228V0h-4.146v15.174h-41.86V0h-4.146v15.174H2.658c-1.145 0-2.07.932-2.07 2.076V172.5c0 1.144.925 2.07 2.07 2.07h161a2.074 2.074 0 002.075-2.07V17.25a2.079 2.079 0 00-2.075-2.076h-32.436V0h-4.14zm4.14 34.5V19.32h30.366v151.104H4.728V19.32h30.348V34.5h4.146V19.32h41.86V34.5h4.146V19.32h41.854V34.5h4.14zm-7.82 20.924c-1.144 0-2.07.932-2.07 2.076V69c0 1.144.926 2.07 2.07 2.07h11.494a2.074 2.074 0 002.076-2.07V57.5a2.079 2.079 0 00-2.076-2.076h-11.494zm2.07 11.5h7.36V59.57h-7.36v7.354zm-48.07-11.5a2.072 2.072 0 00-2.064 2.076V69c0 1.144.925 2.07 2.064 2.07h11.506c1.138 0 2.07-.926 2.07-2.07V57.5a2.077 2.077 0 00-2.07-2.076H77.402zm2.076 11.5h7.36V59.57h-7.36v7.354zm-48.07-11.5c-1.145 0-2.07.932-2.07 2.076V69c0 1.144.925 2.07 2.07 2.07h11.5c1.144 0 2.07-.926 2.07-2.07V57.5a2.074 2.074 0 00-2.07-2.076h-11.5zm2.07 11.5h7.36V59.57h-7.36v7.354zm89.924 28.756c-1.144 0-2.07.926-2.07 2.07v11.5c0 1.144.926 2.07 2.07 2.07h11.494a2.074 2.074 0 002.076-2.07v-11.5c0-1.144-.932-2.07-2.076-2.07h-11.494zm2.07 11.5h7.36v-7.354h-7.36v7.354zm-48.07-11.5a2.067 2.067 0 00-2.064 2.07v11.5c0 1.144.925 2.07 2.064 2.07h11.506c1.138 0 2.07-.926 2.07-2.07v-11.5c0-1.144-.932-2.07-2.07-2.07H77.402zm2.076 11.5h7.36v-7.354h-7.36v7.354zm-48.07-11.5c-1.145 0-2.07.926-2.07 2.07v11.5c0 1.144.925 2.07 2.07 2.07h11.5c1.144 0 2.07-.926 2.07-2.07v-11.5c0-1.144-.926-2.07-2.07-2.07h-11.5zm2.07 11.5h7.36v-7.354h-7.36v7.354zm89.924 28.75c-1.144 0-2.07.926-2.07 2.07v11.5c0 1.144.926 2.076 2.07 2.076h11.494a2.079 2.079 0 002.076-2.076V138c0-1.144-.932-2.07-2.076-2.07h-11.494zm2.07 11.5h7.36v-7.354h-7.36v7.354zm-48.07-11.5a2.067 2.067 0 00-2.064 2.07v11.5c0 1.144.925 2.076 2.064 2.076h11.506c1.138 0 2.07-.932 2.07-2.076V138c0-1.144-.932-2.07-2.07-2.07H77.402zm2.076 11.5h7.36v-7.354h-7.36v7.354zm-48.07-11.5c-1.145 0-2.07.926-2.07 2.07v11.5c0 1.144.925 2.076 2.07 2.076h11.5c1.144 0 2.07-.932 2.07-2.076V138c0-1.144-.926-2.07-2.07-2.07h-11.5zm2.07 11.5h7.36v-7.354h-7.36v7.354z" fill="url(#d)" mask="url(#e)"/></g></g></svg>
